X: 34154
T: Reel For Anna
R: reel
M: 4/4
K: Gmajor
|:Bd (3ddd edBG|E2cE EGDF|GDGA Bd (3ddd|
gedg eAge|d3e edBG|E2cE EGDA|GDGA Bdge|1 dBAB GDGA:|2 dBAB GABd||
|:gdBd e3f|gedB AGEG|gd(3Bcd edge|dBAB G2Bd|
gdBd e3f|gedB AGEG|B2GB AGEG|1 DGGF GABd:|2 DGFA GDGA||

